X: 19746
T: Jenny Picking Cockles
R: reel
M: 4/4
K: Dmixolydian
|:"Am" d2 {/e}dc AG G/G/G|"C" FGAB cAGA|"G" [Dd]3 c AGGc|"G" AGcG "C" EDDc|
"Am" d2 dc AG G/G/G|"C" FGAB c3 d|"G" ed{/e}dc AGE=F|"G" G2 cG "C" ED D2:|
|:"D" ef !turn!f2 efed|"A" ^cAAA cAAd|"D" f3 d ed^cd|"A" egag Pe2 de|
"D" f2 fd efed|"A" ^cAAB "C" [E=c]3 d|"G" ed{/e}dc AGE=F|"G" G2 cG "C" ED D2:|

